server/api/resources/providerLogos/azure-128-disabled.svg

<?xml version="1.0" encoding="UTF-8"?>
<svg width="192px" height="128px" viewBox="0 0 192 128" version="1.1" xmlns="http://www.w3.org/2000/svg" xmlns:xlink="http://www.w3.org/1999/xlink">
    <g id="Symbols" stroke="none" stroke-width="1" fill="none" fill-rule="evenodd">
        <g id="Provider/Azure/azure-128-disabled" fill="#A4AAB5">
            <path d="M92.1236409,47.4918534 L103.768584,15.0966612 L142.010002,82.1924632 L71.0189786,82.1924632 L114.493433,74.4175006 L92.1236409,47.4918534 Z M73.4077733,33.1997198 L100.720197,10 L71.101787,74.3013565 L71.101787,74.2460498 L50,74.2460498 L73.4077733,33.1997198 Z M28.8780488,116.689119 L26.7804878,116.689119 L26.7804878,104.357513 C26.7804878,103.42487 26.7804878,102.181347 26.8853659,100.834197 C26.6756098,101.663212 26.4658537,102.284974 26.3609756,102.595855 L19.9634146,116.689119 L18.9146341,116.689119 L12.6219512,102.699482 C12.4121951,102.284974 12.3073171,101.663212 12.097561,100.834197 L12.097561,104.357513 L12.097561,116.689119 L10,116.689119 L10,98.3471503 L12.8317073,98.3471503 L18.495122,111.093264 C18.9146341,112.025907 19.2292683,112.854922 19.3341463,113.26943 L19.4390244,113.26943 C19.8585366,112.233161 20.0682927,111.507772 20.3829268,110.989637 L26.1512195,98.2435233 L28.8780488,98.2435233 L28.8780488,116.689119 Z M33.9121951,100.212435 C33.4926829,100.212435 33.1780488,100.108808 32.9682927,99.7979275 C32.7585366,99.4870466 32.5487805,99.1761658 32.5487805,98.865285 C32.5487805,98.5544041 32.6536585,98.1398964 32.9682927,97.9326425 C33.2829268,97.6217617 33.597561,97.5181347 33.9121951,97.5181347 C34.3317073,97.5181347 34.6463415,97.6217617 34.8560976,97.9326425 C35.1707317,98.2435233 35.2756098,98.5544041 35.2756098,98.865285 C35.2756098,99.2797927 35.1707317,99.5906736 34.8560976,99.7979275 C34.6463415,100.108808 34.3317073,100.212435 33.9121951,100.212435 Z M34.9609756,116.689119 L32.8634146,116.689119 L32.8634146,103.528497 L34.9609756,103.528497 L34.9609756,116.689119 Z M47.5463415,116.067358 C46.497561,116.689119 45.3439024,117 43.8756098,117 C41.9878049,117 40.4146341,116.378238 39.2609756,115.134715 C38.1073171,113.891192 37.4780488,112.336788 37.4780488,110.367876 C37.4780488,108.19171 38.1073171,106.533679 39.3658537,105.186528 C40.8341463,103.943005 42.4073171,103.217617 44.504878,103.217617 C45.6585366,103.217617 46.7073171,103.42487 47.6512195,103.943005 L47.6512195,106.119171 C46.7073171,105.393782 45.6585366,105.082902 44.504878,105.082902 C43.1414634,105.082902 42.0926829,105.601036 41.1487805,106.533679 C40.3097561,107.466321 39.8902439,108.709845 39.8902439,110.264249 C39.8902439,111.818653 40.3097561,112.958549 41.1487805,113.891192 C41.9878049,114.823834 43.0365854,115.238342 44.4,115.238342 C45.5536585,115.238342 46.602439,114.823834 47.6512195,114.098446 L47.6512195,116.067358 L47.5463415,116.067358 Z M57.0902439,105.704663 C56.6707317,105.393782 56.1463415,105.290155 55.4121951,105.290155 C54.4682927,105.290155 53.7341463,105.704663 53.104878,106.533679 C52.4756098,107.362694 52.1609756,108.502591 52.1609756,109.953368 L52.1609756,116.689119 L50.0634146,116.689119 L50.0634146,103.528497 L52.1609756,103.528497 L52.1609756,106.222798 C52.4756098,105.290155 52.895122,104.564767 53.5243902,104.046632 C54.1536585,103.528497 54.8878049,103.321244 55.6219512,103.321244 C56.1463415,103.321244 56.5658537,103.42487 56.8804878,103.528497 L56.8804878,105.704663 L57.0902439,105.704663 Z M63.9073171,117 C61.9146341,117 60.3414634,116.378238 59.1878049,115.134715 C58.0341463,113.891192 57.404878,112.336788 57.404878,110.264249 C57.404878,108.088083 58.0341463,106.326425 59.1878049,105.082902 C60.3414634,103.839378 62.1243902,103.217617 64.2219512,103.217617 C66.2146341,103.217617 67.7878049,103.839378 68.8365854,104.979275 C69.9902439,106.222798 70.5146341,107.880829 70.5146341,109.953368 C70.5146341,112.025907 69.8853659,113.683938 68.7317073,114.927461 C67.4731707,116.274611 65.9,117 63.9073171,117 Z M64.0121951,104.979275 C62.6487805,104.979275 61.6,105.393782 60.7609756,106.326425 C59.9219512,107.259067 59.6073171,108.502591 59.6073171,110.160622 C59.6073171,111.715026 60.0268293,112.958549 60.7609756,113.787565 C61.6,114.720207 62.6487805,115.134715 64.0121951,115.134715 C65.3756098,115.134715 66.4243902,114.720207 67.1585366,113.787565 C67.8926829,112.958549 68.3121951,111.715026 68.3121951,110.056995 C68.3121951,108.398964 67.8926829,107.15544 67.1585366,106.326425 C66.4243902,105.497409 65.3756098,104.979275 64.0121951,104.979275 Z M72.402439,116.170984 L72.402439,113.891192 C73.5560976,114.720207 74.8146341,115.134715 76.1780488,115.134715 C78.0658537,115.134715 79.0097561,114.512953 79.0097561,113.26943 C79.0097561,112.958549 78.904878,112.647668 78.8,112.336788 C78.5902439,112.129534 78.3804878,111.92228 78.1707317,111.715026 C77.8560976,111.507772 77.5414634,111.404145 77.2268293,111.196891 C76.9121951,111.093264 76.4926829,110.88601 76.0731707,110.782383 C75.4439024,110.57513 75.0243902,110.367876 74.5,110.056995 C74.0804878,109.849741 73.6609756,109.53886 73.3463415,109.227979 C73.0317073,108.917098 72.8219512,108.606218 72.7170732,108.19171 C72.6121951,107.777202 72.5073171,107.362694 72.5073171,106.84456 C72.5073171,106.222798 72.6121951,105.704663 72.9268293,105.186528 C73.1365854,104.979275 73.4512195,104.564767 73.9756098,104.253886 C74.5,103.943005 75.0243902,103.735751 75.5487805,103.528497 C76.1780488,103.321244 76.8073171,103.217617 77.4365854,103.217617 C78.5902439,103.217617 79.6390244,103.42487 80.4780488,103.839378 L80.4780488,105.911917 C79.5341463,105.290155 78.3804878,104.979275 77.1219512,104.979275 C76.702439,104.979275 76.3878049,104.979275 76.0731707,105.082902 C75.7585366,105.186528 75.4439024,105.290155 75.2341463,105.497409 C75.0243902,105.704663 74.8146341,105.80829 74.7097561,106.119171 C74.604878,106.326425 74.5,106.637306 74.5,106.84456 C74.5,107.15544 74.604878,107.466321 74.7097561,107.673575 C74.8146341,107.880829 75.0243902,108.088083 75.2341463,108.295337 C75.4439024,108.502591 75.7585366,108.606218 76.0731707,108.813472 C76.3878049,108.917098 76.8073171,109.124352 77.2268293,109.331606 C77.8560976,109.53886 78.3804878,109.746114 78.8,110.056995 C79.2195122,110.264249 79.6390244,110.57513 79.9536585,110.88601 C80.2682927,111.196891 80.5829268,111.507772 80.6878049,111.92228 C80.897561,112.336788 81.002439,112.751295 81.002439,113.26943 C81.002439,113.891192 80.897561,114.512953 80.5829268,114.927461 C80.2682927,115.445596 79.9536585,115.756477 79.4292683,116.067358 C78.904878,116.378238 78.3804878,116.585492 77.7512195,116.792746 C77.1219512,116.896373 76.4926829,117 75.7585366,117 C74.604878,117 73.3463415,116.689119 72.402439,116.170984 Z M89.2878049,117 C87.295122,117 85.7219512,116.378238 84.5682927,115.134715 C83.4146341,113.891192 82.7853659,112.336788 82.7853659,110.264249 C82.7853659,108.088083 83.4146341,106.326425 84.5682927,105.082902 C85.9317073,103.839378 87.504878,103.217617 89.602439,103.217617 C91.595122,103.217617 93.1682927,103.839378 94.2170732,104.979275 C95.3707317,106.222798 95.895122,107.880829 95.895122,109.953368 C95.895122,112.025907 95.2658537,113.683938 94.1121951,114.927461 C92.8536585,116.274611 91.2804878,117 89.2878049,117 Z M89.3926829,104.979275 C88.0292683,104.979275 86.9804878,105.393782 86.1414634,106.326425 C85.302439,107.259067 84.9878049,108.502591 84.9878049,110.160622 C84.9878049,111.715026 85.4073171,112.958549 86.1414634,113.787565 C86.9804878,114.720207 88.0292683,115.134715 89.3926829,115.134715 C90.7560976,115.134715 91.804878,114.720207 92.5390244,113.787565 C93.2731707,112.958549 93.6926829,111.715026 93.6926829,110.056995 C93.6926829,108.398964 93.2731707,107.15544 92.5390244,106.326425 C91.9097561,105.497409 90.7560976,104.979275 89.3926829,104.979275 Z M112.360976,105.393782 L109.004878,105.393782 L109.004878,112.854922 C109.004878,113.683938 109.109756,114.305699 109.42439,114.720207 C109.739024,115.031088 110.158537,115.238342 110.892683,115.238342 C111.417073,115.238342 111.836585,115.134715 112.256098,114.823834 L112.256098,116.585492 C111.731707,116.896373 111.102439,117 110.263415,117 C107.956098,117 106.802439,115.756477 106.802439,113.165803 L106.802439,105.393782 L104.07561,105.393782 L102.502439,105.393782 L101.034146,105.393782 L101.034146,116.689119 L98.9365854,116.689119 L98.9365854,105.290155 L96.6292683,105.290155 L96.6292683,103.528497 L98.9365854,103.528497 L98.9365854,101.455959 C98.9365854,100.108808 99.2512195,99.0725389 100.090244,98.2435233 C100.929268,97.4145078 101.978049,97 103.131707,97 C103.760976,97 104.285366,97.1036269 104.704878,97.2072539 L104.704878,99.0725389 C104.285366,98.865285 103.865854,98.761658 103.341463,98.761658 C101.873171,98.761658 101.139024,99.6943005 101.139024,101.559585 L101.139024,103.632124 L102.607317,103.632124 L104.180488,103.632124 L106.907317,103.632124 L106.907317,100.419689 L109.004878,99.6943005 L109.004878,103.528497 L112.360976,103.528497 L112.360976,105.393782 Z M135.74878,116.689119 L133.336585,116.689119 L131.343902,111.507772 L123.478049,111.507772 L121.590244,116.689119 L119.178049,116.689119 L126.414634,98.3471503 L128.617073,98.3471503 L135.74878,116.689119 Z M130.714634,109.53886 L127.778049,101.766839 C127.673171,101.559585 127.568293,101.145078 127.463415,100.523316 C127.358537,101.041451 127.253659,101.455959 127.14878,101.766839 L124.317073,109.53886 L130.714634,109.53886 Z M146.760976,104.150259 L138.895122,114.823834 L146.656098,114.823834 L146.656098,116.689119 L135.853659,116.689119 L135.853659,116.067358 L143.719512,105.393782 L136.587805,105.393782 L136.587805,103.528497 L146.760976,103.528497 L146.760976,104.150259 Z M159.556098,116.689119 L157.458537,116.689119 L157.458537,114.61658 C156.619512,116.170984 155.256098,117 153.368293,117 C150.221951,117 148.64878,115.134715 148.64878,111.404145 L148.64878,103.528497 L150.746341,103.528497 L150.746341,110.989637 C150.746341,113.787565 151.795122,115.134715 153.997561,115.134715 C155.046341,115.134715 155.885366,114.720207 156.514634,113.994819 C157.143902,113.26943 157.563415,112.233161 157.563415,110.989637 L157.563415,103.528497 L159.660976,103.528497 L159.660976,116.689119 L159.556098,116.689119 Z M170.043902,105.704663 C169.62439,105.393782 169.1,105.290155 168.470732,105.290155 C167.526829,105.290155 166.792683,105.704663 166.163415,106.533679 C165.534146,107.362694 165.219512,108.502591 165.219512,109.953368 L165.219512,116.689119 L163.121951,116.689119 L163.121951,103.528497 L165.219512,103.528497 L165.219512,106.222798 C165.534146,105.290155 165.953659,104.564767 166.582927,104.046632 C167.212195,103.528497 167.946341,103.321244 168.680488,103.321244 C169.204878,103.321244 169.62439,103.42487 169.939024,103.528497 L169.939024,105.704663 L170.043902,105.704663 Z M182,110.57513 L172.665854,110.57513 C172.665854,112.025907 173.085366,113.165803 173.819512,113.994819 C174.553659,114.823834 175.602439,115.134715 176.965854,115.134715 C178.434146,115.134715 179.797561,114.61658 181.056098,113.683938 L181.056098,115.65285 C179.902439,116.481865 178.329268,116.896373 176.441463,116.896373 C174.553659,116.896373 173.085366,116.274611 172.036585,115.134715 C170.987805,113.994819 170.463415,112.233161 170.463415,110.160622 C170.463415,108.088083 171.092683,106.430052 172.246341,105.186528 C173.4,103.943005 174.868293,103.217617 176.546341,103.217617 C178.22439,103.217617 179.587805,103.735751 180.531707,104.875648 C181.47561,106.015544 182,107.569948 182,109.435233 L182,110.57513 Z M179.797561,108.813472 C179.797561,107.569948 179.482927,106.637306 178.958537,106.015544 C178.329268,105.393782 177.595122,104.979275 176.546341,104.979275 C175.497561,104.979275 174.658537,105.290155 174.029268,106.015544 C173.295122,106.740933 172.87561,107.673575 172.770732,108.813472 L179.797561,108.813472 Z" id="Combined-Shape"></path>
        </g>
    </g>
</svg>

<?xml version="1.0" encoding="UTF-8" standalone="no"?>
<svg xmlns:dc="http://purl.org/dc/elements/1.1/" xmlns:cc="http://creativecommons.org/ns#" xmlns:rdf="http://www.w3.org/1999/02/22-rdf-syntax-ns#" xmlns:svg="http://www.w3.org/2000/svg" xmlns="http://www.w3.org/2000/svg" id="svg4868" version="1.1" viewBox="0 0 192 128" height="128px" width="192px">
  <defs id="defs4872">
    <linearGradient id="e399c19f-b68f-429d-b176-18c2117ff73c" x1="-1032.172" x2="-1059.213" y1="145.312" y2="65.426" gradientTransform="matrix(1,0,0,-1,1075,158)" gradientUnits="userSpaceOnUse">
      <stop offset="0" stop-color="#A4AAB5" id="stop5437" />
      <stop offset="1" stop-color="#A4AAB5" id="stop5439" />
    </linearGradient>
    <linearGradient id="ac2a6fc2-ca48-4327-9a3c-d4dcc3256e15" x1="-1023.725" x2="-1029.98" y1="108.083" y2="105.968" gradientTransform="matrix(1,0,0,-1,1075,158)" gradientUnits="userSpaceOnUse">
      <stop offset="0" stop-opacity=".3" id="stop5442" />
      <stop offset=".071" stop-opacity=".2" id="stop5444" />
      <stop offset=".321" stop-opacity=".1" id="stop5446" />
      <stop offset=".623" stop-opacity=".05" id="stop5448" />
      <stop offset="1" stop-opacity="0" id="stop5450" />
    </linearGradient>
    <linearGradient id="a7fee970-a784-4bb1-af8d-63d18e5f7db9" x1="-1027.165" x2="-997.482" y1="147.642" y2="68.561" gradientTransform="matrix(1,0,0,-1,1075,158)" gradientUnits="userSpaceOnUse">
      <stop offset="0" stop-color="#A4AAB5" id="stop5453" />
      <stop offset="1" stop-color="#A4AAB5" id="stop5455" />
    </linearGradient>
  </defs>
  <g fill-rule="evenodd" fill="none" stroke-width="1" stroke="none" id="Symbols">
    <g fill="#A4AAB5" id="Provider/Azure/azure-128-disabled">
      <path id="Combined-Shape" d="m 28.878049,116.68912 h -2.097561 v -12.33161 c 0,-0.93264 0,-2.17616 0.104878,-3.52331 -0.209756,0.82901 -0.419512,1.45077 -0.52439,1.76166 l -6.397561,14.09326 h -1.048781 l -6.292683,-13.98964 c -0.209756,-0.41451 -0.314634,-1.03627 -0.52439,-1.86528 v 3.52331 12.33161 H 10 V 98.34715 h 2.831707 l 5.663415,12.74611 c 0.419512,0.93265 0.734146,1.76166 0.839024,2.17617 h 0.104878 c 0.419513,-1.03627 0.629269,-1.76166 0.943903,-2.27979 l 5.768292,-12.746117 h 2.72683 z m 5.034146,-16.47668 c -0.419512,0 -0.734146,-0.10363 -0.943902,-0.414513 -0.209756,-0.31088 -0.419513,-0.621761 -0.419513,-0.932642 0,-0.310881 0.104878,-0.725389 0.419513,-0.932643 0.314634,-0.31088 0.629268,-0.414507 0.943902,-0.414507 0.419512,0 0.734146,0.103627 0.943903,0.414507 0.314634,0.310881 0.419512,0.621762 0.419512,0.932643 0,0.414508 -0.104878,0.725389 -0.419512,0.932642 -0.209757,0.310883 -0.524391,0.414513 -0.943903,0.414513 z m 1.048781,16.47668 H 32.863415 V 103.5285 h 2.097561 z m 12.585365,-0.62176 C 46.497561,116.68912 45.343902,117 43.87561,117 c -1.887805,0 -3.460976,-0.62176 -4.614634,-1.86528 -1.153659,-1.24353 -1.782927,-2.79793 -1.782927,-4.76684 0,-2.17617 0.629268,-3.8342 1.887805,-5.18135 1.468292,-1.24352 3.041463,-1.96891 5.139024,-1.96891 1.153659,0 2.202439,0.20725 3.146342,0.72539 v 2.17616 c -0.943903,-0.72539 -1.992683,-1.03627 -3.146342,-1.03627 -1.363415,0 -2.412195,0.51814 -3.356098,1.45078 -0.839024,0.93264 -1.258536,2.17617 -1.258536,3.73057 0,1.5544 0.419512,2.6943 1.258536,3.62694 0.839025,0.93264 1.887805,1.34715 3.25122,1.34715 1.153658,0 2.202439,-0.41451 3.25122,-1.13989 v 1.96891 z m 9.543903,-10.3627 c -0.419512,-0.31088 -0.943903,-0.4145 -1.678049,-0.4145 -0.943902,0 -1.678049,0.4145 -2.307317,1.24352 -0.629268,0.82901 -0.943902,1.96891 -0.943902,3.41969 v 6.73575 H 50.063415 V 103.5285 h 2.097561 v 2.6943 c 0.314634,-0.93264 0.734146,-1.65803 1.363414,-2.17617 0.629268,-0.51813 1.363415,-0.72539 2.097561,-0.72539 0.52439,0 0.943903,0.10363 1.258537,0.20726 v 2.17616 z M 63.907317,117 c -1.992683,0 -3.565854,-0.62176 -4.719512,-1.86528 -1.153659,-1.24353 -1.782927,-2.79793 -1.782927,-4.87047 0,-2.17617 0.629268,-3.93782 1.782927,-5.18135 1.153658,-1.24352 2.936585,-1.86528 5.034146,-1.86528 1.992683,0 3.565854,0.62176 4.614634,1.76166 1.153659,1.24352 1.678049,2.90155 1.678049,4.97409 0,2.07254 -0.629268,3.73057 -1.782927,4.97409 C 67.473171,116.27461 65.9,117 63.907317,117 Z m 0.104878,-12.02072 c -1.363415,0 -2.412195,0.4145 -3.251219,1.34715 -0.839025,0.93264 -1.153659,2.17616 -1.153659,3.83419 0,1.55441 0.419512,2.79793 1.153659,3.62695 0.839024,0.93264 1.887804,1.34715 3.251219,1.34715 1.363415,0 2.412195,-0.41451 3.146342,-1.34715 0.734146,-0.82902 1.153658,-2.07254 1.153658,-3.73057 0,-1.65804 -0.419512,-2.90156 -1.153658,-3.73057 -0.734147,-0.82902 -1.782927,-1.34715 -3.146342,-1.34715 z m 8.390244,11.1917 v -2.27979 c 1.153659,0.82902 2.412195,1.24353 3.77561,1.24353 1.887805,0 2.831707,-0.62177 2.831707,-1.86529 0,-0.31088 -0.104878,-0.62176 -0.209756,-0.93264 l -0.629268,-0.62176 c -0.314634,-0.20726 -0.629269,-0.31088 -0.943903,-0.51814 -0.314634,-0.10363 -0.734146,-0.31088 -1.153658,-0.41451 -0.629269,-0.20725 -1.048781,-0.4145 -1.573171,-0.72538 -0.419512,-0.20726 -0.839024,-0.51814 -1.153659,-0.82902 -0.314634,-0.31088 -0.52439,-0.62176 -0.629268,-1.03627 -0.104878,-0.41451 -0.209756,-0.82902 -0.209756,-1.34715 0,-0.62176 0.104878,-1.1399 0.419512,-1.65803 0.209756,-0.20725 0.52439,-0.62176 1.048781,-0.93264 0.52439,-0.31088 1.04878,-0.51814 1.573171,-0.72539 0.629268,-0.20726 1.258536,-0.31088 1.887804,-0.31088 1.153659,0 2.202439,0.20725 3.041464,0.62176 v 2.07254 c -0.943903,-0.62176 -2.097561,-0.93264 -3.356098,-0.93264 -0.419512,0 -0.734146,0 -1.04878,0.10362 -0.314634,0.10363 -0.629269,0.20726 -0.839025,0.41451 -0.209756,0.20725 -0.419512,0.31088 -0.52439,0.62176 -0.104878,0.20726 -0.209756,0.51814 -0.209756,0.72539 0,0.31088 0.104878,0.62176 0.209756,0.82902 0.104878,0.20725 0.314634,0.4145 0.52439,0.62176 0.209756,0.20725 0.524391,0.31088 0.839025,0.51813 0.314634,0.10363 0.734146,0.31088 1.153658,0.51814 0.629269,0.20725 1.153659,0.4145 1.573171,0.72539 0.419512,0.20725 0.839024,0.51813 1.153659,0.82901 0.314634,0.31088 0.629268,0.62176 0.734146,1.03627 0.209756,0.41451 0.314634,0.82902 0.314634,1.34715 0,0.62176 -0.104878,1.24352 -0.419512,1.65803 -0.314634,0.51814 -0.629268,0.82902 -1.153659,1.1399 -0.52439,0.31088 -1.04878,0.51813 -1.678048,0.72539 C 77.121951,116.89637 76.492683,117 75.758537,117 c -1.153659,0 -2.412196,-0.31088 -3.356098,-0.82902 z M 89.287805,117 c -1.992683,0 -3.565854,-0.62176 -4.719512,-1.86528 -1.153659,-1.24353 -1.782927,-2.79793 -1.782927,-4.87047 0,-2.17617 0.629268,-3.93782 1.782927,-5.18135 1.363414,-1.24352 2.936585,-1.86528 5.034146,-1.86528 1.992683,0 3.565854,0.62176 4.614634,1.76166 1.153659,1.24352 1.678049,2.90155 1.678049,4.97409 0,2.07254 -0.629268,3.73057 -1.782927,4.97409 C 92.853658,116.27461 91.280488,117 89.287805,117 Z m 0.104878,-12.02072 c -1.363415,0 -2.412195,0.4145 -3.25122,1.34715 -0.839024,0.93264 -1.153658,2.17616 -1.153658,3.83419 0,1.55441 0.419512,2.79793 1.153658,3.62695 0.839025,0.93264 1.887805,1.34715 3.25122,1.34715 1.363415,0 2.412195,-0.41451 3.146341,-1.34715 0.734147,-0.82902 1.153659,-2.07254 1.153659,-3.73057 0,-1.65804 -0.419512,-2.90156 -1.153659,-3.73057 -0.629268,-0.82902 -1.782926,-1.34715 -3.146341,-1.34715 z m 22.968297,0.4145 h -3.3561 v 7.46114 c 0,0.82902 0.10488,1.45078 0.41951,1.86529 0.31463,0.31088 0.73415,0.51813 1.46829,0.51813 0.52439,0 0.94391,-0.10362 1.36342,-0.41451 v 1.76166 C 111.73171,116.89637 111.10244,117 110.26341,117 c -2.30731,0 -3.46097,-1.24352 -3.46097,-3.8342 v -7.77202 h -2.72683 -1.57317 -1.46829 v 11.29534 h -2.097565 v -11.39896 h -2.307317 v -1.76166 h 2.307317 v -2.07254 c 0,-1.34715 0.314635,-2.383421 1.153655,-3.212437 C 100.92927,97.414508 101.97805,97 103.13171,97 c 0.62927,0 1.15366,0.103627 1.57317,0.207254 v 1.865285 c -0.41951,-0.207254 -0.83903,-0.310881 -1.36342,-0.310881 -1.46829,0 -2.20244,0.932642 -2.20244,2.797932 v 2.07253 h 1.4683 1.57317 2.72683 v -3.21243 l 2.09756,-0.72539 v 3.8342 h 3.3561 z m 23.3878,11.29534 h -2.41219 l -1.99269,-5.18135 h -7.86585 l -1.88781,5.18135 h -2.41219 l 7.23658,-18.34197 h 2.20244 z m -5.03415,-7.15026 -2.93658,-7.77202 c -0.10488,-0.20725 -0.20976,-0.62176 -0.31464,-1.24352 -0.10487,0.51813 -0.20975,0.93264 -0.31463,1.24352 l -2.83171,7.77202 z m 16.04635,-5.3886 -7.86586,10.67357 h 7.76098 v 1.86529 h -10.80244 v -0.62176 l 7.86585,-10.67358 h -7.13171 v -1.86528 h 10.17318 z m 12.79512,12.53886 h -2.09756 v -2.07254 C 156.61951,116.17098 155.2561,117 153.36829,117 c -3.14634,0 -4.71951,-1.86528 -4.71951,-5.59585 v -7.87565 h 2.09756 v 7.46114 c 0,2.79793 1.04878,4.14508 3.25122,4.14508 1.04878,0 1.88781,-0.41451 2.51707,-1.1399 0.62927,-0.72539 1.04878,-1.76166 1.04878,-3.00518 v -7.46114 h 2.09757 v 13.16062 z m 10.4878,-10.98446 c -0.41951,-0.31088 -0.9439,-0.4145 -1.57317,-0.4145 -0.9439,0 -1.67805,0.4145 -2.30732,1.24352 -0.62926,0.82901 -0.9439,1.96891 -0.9439,3.41969 v 6.73575 h -2.09756 V 103.5285 h 2.09756 v 2.6943 c 0.31464,-0.93264 0.73415,-1.65803 1.36342,-2.17617 0.62926,-0.51813 1.36341,-0.72539 2.09756,-0.72539 0.52439,0 0.9439,0.10363 1.25853,0.20726 v 2.17616 z M 182,110.57513 h -9.33415 c 0,1.45078 0.41952,2.59067 1.15366,3.41969 0.73415,0.82901 1.78293,1.1399 3.14634,1.1399 1.4683,0 2.83171,-0.51814 4.09025,-1.45078 v 1.96891 c -1.15366,0.82902 -2.72683,1.24352 -4.61464,1.24352 -1.8878,0 -3.35609,-0.62176 -4.40488,-1.76165 -1.04878,-1.1399 -1.57317,-2.90156 -1.57317,-4.9741 0,-2.07254 0.62927,-3.73057 1.78293,-4.97409 1.15366,-1.24352 2.62195,-1.96891 4.3,-1.96891 1.67805,0 3.04146,0.51813 3.98537,1.65803 0.9439,1.13989 1.46829,2.6943 1.46829,4.55958 z m -2.20244,-1.76166 c 0,-1.24352 -0.31463,-2.17616 -0.83902,-2.79793 -0.62927,-0.62176 -1.36342,-1.03626 -2.4122,-1.03626 -1.04878,0 -1.8878,0.31088 -2.51707,1.03626 -0.73415,0.72539 -1.15366,1.65804 -1.25854,2.79793 z" />
    </g>
  </g>
  <g transform="matrix(0.87035546,0,0,0.87035546,53.272989,4.3046308)" id="g5490">
    <path style="fill:url(#e399c19f-b68f-429d-b176-18c2117ff73c)" fill="url(#e399c19f-b68f-429d-b176-18c2117ff73c)" d="m 33.338,6.544 h 26.038 l -27.03,80.087 a 4.152,4.152 0 0 1 -3.933,2.824 H 8.149 A 4.145,4.145 0 0 1 4.221,83.985 L 29.404,9.368 a 4.152,4.152 0 0 1 3.934,-2.825 z" id="path5460" />
    <path fill="#a4aab5" d="M 71.175,60.261 H 29.885 A 1.911,1.911 0 0 0 28.58,63.57 l 26.532,24.764 a 4.171,4.171 0 0 0 2.846,1.121 h 23.38 z" id="path5462" />
    <path style="fill:url(#ac2a6fc2-ca48-4327-9a3c-d4dcc3256e15)" fill="url(#ac2a6fc2-ca48-4327-9a3c-d4dcc3256e15)" d="M 33.338,6.544 A 4.118,4.118 0 0 0 29.395,9.423 L 4.252,83.917 a 4.14,4.14 0 0 0 3.908,5.538 h 20.787 a 4.443,4.443 0 0 0 3.41,-2.9 l 5.014,-14.777 17.91,16.705 a 4.237,4.237 0 0 0 2.666,0.972 H 81.24 L 71.024,60.261 41.243,60.268 59.47,6.544 Z" id="path5464" />
    <path style="fill:url(#a7fee970-a784-4bb1-af8d-63d18e5f7db9)" fill="url(#a7fee970-a784-4bb1-af8d-63d18e5f7db9)" d="M 66.595,9.364 A 4.145,4.145 0 0 0 62.667,6.544 H 33.648 a 4.146,4.146 0 0 1 3.928,2.82 l 25.184,74.62 a 4.146,4.146 0 0 1 -3.928,5.472 h 29.02 a 4.146,4.146 0 0 0 3.927,-5.472 z" id="path5466" />
  </g>
</svg>
